X:1
T:Title
%%score ( 1 2 ) { ( 3 4 ) | 5 }
L:1/8
Q:1/4=115
M:4/4
K:C
V:1 treble nm="Grand Piano, Unnamed-000"
V:2 treble 
V:3 bass nm="Choir Pad, Von Himmel Hoch"
V:4 bass 
V:5 bass 
V:1
 [Gc]2 B-[^FB] [EA]2 BA | G-[DG] [CA]2 [DB]2 [Ec]2 | c-[Fc]c-[Fc] [EG]2 [DG]2 | .E2 z2 z4 | %4
w: By~Geistliche~Lieder,~Leipzig,~1539 * * * * *||||
 CD [EA]2 [DA]2 [DG][^FA] | [GB]2 cB A-[^FA] G2 | c2 B2 A2 G2 | .A2 z2 z4 | z8 |] %9
w: |||||
V:2
 z2 .G2 z2 D2 | .E2 z2 z4 | .E2 .G2 z4 | C-[CF] [CG]2 [DF]2 [CE]2 | E2 z2 z4 | z2 G2 .G2 z2 | %6
 EDDE EDDC | C-[CG][CF][A,E] [B,D]2 C2- | C6 z2 |] %9
V:3
 E2 D2 z ^F, B,2 | CB,A,G, F,2 G,2 | G,2 C2 C2 B,2 | _B,A, G,2 G,2 G,2 | G,2 G,2 ^F,2 G,C | %5
 B,A,G,B, ED B,2 | A,2 z2 G,F,F,E, | A,B, C2 z F, E,2- | E,6 z2 |] %9
V:4
 z4 C2 z2 | x8 | x8 | x8 | x8 | x8 | x8 | x8 | x8 |] %9
V:5
 C,2 .G,4 G,F, | E,2 F,E, D,2 C,2 | C,D, E,2 E,F, G,2 | G,F,E,D, C,B,, C,2 | C,2 ^C,2 D,=C,B,,A,, | %5
 G,,2 D,C, C,D, G,2 | G,^F,G,E, C,D,B,,C, | F,G,A,F, G,G,, C,2- | C,6 z2 |] %9

